icon-themes/breeze_svg/cmd/lc_merge.svg

<svg viewBox="0 0 24 24" xmlns="http://www.w3.org/2000/svg"><g fill="#4d4d4d"><path d="m14 5a5 5 0 0 0 -5 5h-4v9h9v-4a5 5 0 0 0 5-5 5 5 0 0 0 -5-5z" fill-opacity=".5"/><path d="m14 4a6 6 0 0 0 -5.9140625 5h-4.0859375v11h11v-4.085938a6 6 0 0 1 -.136719.015626 6 6 0 0 0 5.136719-5.929688 6 6 0 0 0 -6-6zm0 1a5 5 0 0 1 5 5 5 5 0 0 1 -5 5 5 5 0 0 1 -5-5 5 5 0 0 1 5-5zm-5.9414062 4.2148438a6 6 0 0 0 -.0292969.2421874 6 6 0 0 1 .0292969-.2421874zm-3.0585938.7851562h3a6 6 0 0 0 6 6 6 6 0 0 0 .488281-.023438 6 6 0 0 1 -.488281.023438v3h-9z"/></g></svg>

<svg viewBox="0 0 24 24" xmlns="http://www.w3.org/2000/svg">
  <path
     style="fill:#4d4d4d;fill-opacity:0.5"
     d="M 14 5 A 5 5 0 0 0 9 10 L 5 10 L 5 19 L 14 19 L 14 15 A 5 5 0 0 0 19 10 A 5 5 0 0 0 14 5 z "
     />
  <path
     style="fill:#4d4d4d"
     d="M 14 4 A 6 6 0 0 0 8.0859375 9 L 4 9 L 4 20 L 15 20 L 15 15.914062 A 6 6 0 0 1 14.863281 15.929688 A 6 6 0 0 0 20 10 A 6 6 0 0 0 14 4 z M 14 5 A 5 5 0 0 1 19 10 A 5 5 0 0 1 14 15 A 5 5 0 0 1 9 10 A 5 5 0 0 1 14 5 z M 8.0585938 9.2148438 A 6 6 0 0 0 8.0292969 9.4570312 A 6 6 0 0 1 8.0585938 9.2148438 z M 5 10 L 8 10 A 6 6 0 0 0 14 16 A 6 6 0 0 0 14.488281 15.976562 A 6 6 0 0 1 14 16 L 14 19 L 5 19 L 5 10 z "
     />
</svg>
